src/components/00-materials/images-raw/Cancellation_1.svg

<svg width="96" height="96" viewBox="0 0 96 96" fill="none" xmlns="http://www.w3.org/2000/svg">
<path d="M61.55 70.77C57.76 71.85 56.12 71.15 55.39 70.96C55.253 70.9205 55.1192 70.8703 54.99 70.81C54.19 70.43 51.82 70.33 47.99 63.4M67.47 68.35C73.54 64.49 81.62 55.9 88.12 38.62C88.2494 38.2744 88.2885 37.9016 88.2337 37.5366C88.1789 37.1717 88.0319 36.8268 87.8067 36.5345C87.5815 36.2422 87.2854 36.0122 86.9465 35.8662C86.6076 35.7202 86.2371 35.663 85.87 35.7C79.7669 36.1075 73.6444 35.2776 67.87 33.26C62.0598 31.3656 56.69 28.3219 52.08 24.31C51.8472 24.0986 51.5716 23.9398 51.2719 23.8445C50.9723 23.7491 50.6556 23.7194 50.3435 23.7573C50.0313 23.7953 49.731 23.9 49.4629 24.0644C49.1949 24.2288 48.9654 24.449 48.79 24.71" stroke="#00008F" stroke-width="2" stroke-linecap="round" stroke-linejoin="round"/>
<path d="M58.18 59.31L65.36 61.83C65.7867 61.974 66.2476 61.9823 66.6793 61.8537C67.111 61.7252 67.4922 61.466 67.7706 61.112C68.0491 60.7579 68.211 60.3263 68.2341 59.8765C68.2573 59.4267 68.1406 58.9808 67.9 58.6C66.2542 56.0491 63.7834 54.1395 60.9 53.19C60.104 52.9275 59.288 52.7302 58.46 52.6M51.12 40.11C50.6526 35.0892 49.756 30.1177 48.44 25.25M73.08 46.37C72.0404 46.0302 70.9196 46.0302 69.88 46.37C69.4964 46.4985 69.1629 46.7444 68.9266 47.0727C68.6903 47.4011 68.5632 47.7954 68.5632 48.2C68.5632 48.6046 68.6903 48.9989 68.9266 49.3273C69.1629 49.6556 69.4964 49.9015 69.88 50.03L73.44 51.23C73.8231 51.3566 74.2363 51.3599 74.6214 51.2395C75.0065 51.1191 75.3442 50.8811 75.587 50.5588C75.8298 50.2366 75.9655 49.8463 75.975 49.4429C75.9845 49.0396 75.8673 48.6433 75.64 48.31C75.0153 47.407 74.1183 46.7272 73.08 46.37ZM51.51 44.1H53.51C53.9498 44.0815 54.3735 43.9297 54.725 43.6648C55.0765 43.3998 55.3391 43.0342 55.478 42.6165C55.6169 42.1988 55.6254 41.7488 55.5025 41.3261C55.3797 40.9034 55.1311 40.5281 54.79 40.25C54.68 40.16 54.56 40.1 54.45 40.02C53.5718 39.3844 52.5318 39.01 51.45 38.94L51.51 44.1ZM40.3 50.1L28.74 53.9C28.315 54.0429 27.9445 54.3134 27.6788 54.6746C27.4132 55.0358 27.2653 55.4701 27.2555 55.9184C27.2457 56.3667 27.3743 56.807 27.6238 57.1795C27.8734 57.552 28.2317 57.8385 28.65 58C31.4828 59.0544 34.5907 59.1109 37.46 58.16C40.0571 57.3609 42.3176 55.7262 43.89 53.51L40.3 50.1ZM26 42.36C25.1265 42.1907 24.2242 42.2493 23.38 42.53C22.5125 42.817 21.734 43.3234 21.12 44C20.7818 44.3512 20.5712 44.8057 20.5218 45.2907C20.4723 45.7757 20.5868 46.2634 20.8471 46.6756C21.1073 47.0879 21.4983 47.401 21.9574 47.565C22.4166 47.7289 22.9175 47.7342 23.38 47.58L26.26 46.58C26.73 46.4401 27.1388 46.1452 27.4197 45.7433C27.7006 45.3414 27.8372 44.8561 27.807 44.3667C27.7768 43.8772 27.5818 43.4124 27.2536 43.048C26.9255 42.6836 26.4836 42.4411 26 42.36ZM51.32 45.12C51.3209 47.3402 51.1471 49.5571 50.8 51.75L51.32 45.12ZM40.47 41.77L41.97 41.35C42.4378 41.1961 42.8397 40.8884 43.1103 40.477C43.3809 40.0655 43.5042 39.5746 43.4602 39.0841C43.4161 38.5936 43.2073 38.1324 42.8677 37.7758C42.5281 37.4192 42.0777 37.188 41.59 37.12C40.8592 37.0382 40.1194 37.1132 39.42 37.34C38.7618 37.5487 38.1528 37.8889 37.63 38.34C37.5557 38.4024 37.4887 38.4728 37.43 38.55L40.47 41.77Z" stroke="#00008F" stroke-width="2" stroke-linecap="round" stroke-linejoin="round"/>
<path d="M48.44 25.25C48.16 24.2 47.87 23.13 47.55 22.03C47.4491 21.6745 47.2594 21.3504 46.9988 21.0883C46.7382 20.8262 46.4153 20.6346 46.0603 20.5317C45.7054 20.4287 45.33 20.4176 44.9696 20.4995C44.6092 20.5815 44.2756 20.7537 44 21C39.3662 24.9868 33.9751 27.9969 28.15 29.85C22.3664 31.8225 16.2443 32.6082 10.15 32.16C9.78041 32.1224 9.40733 32.1798 9.06617 32.3268C8.72501 32.4739 8.42708 32.7056 8.20067 33.0002C7.97425 33.2947 7.82687 33.6422 7.7725 34.0097C7.71813 34.3772 7.75857 34.7525 7.89 35.1C17.45 60.89 29 66.43 35.47 67.48M51.12 40.11C51.26 41.89 51.33 43.55 51.32 45.11" stroke="#00008F" stroke-width="2" stroke-linecap="round" stroke-linejoin="round"/>
<path d="M44.56 46L40.89 42.4L37.81 39.4L36.25 37.86C35.9957 37.5888 35.6893 37.3717 35.3492 37.2219C35.009 37.072 34.642 36.9924 34.2703 36.9878C33.8986 36.9833 33.5298 37.0538 33.1861 37.1953C32.8423 37.3368 32.5307 37.5462 32.2699 37.8111C32.009 38.0759 31.8044 38.3908 31.6683 38.7366C31.5321 39.0825 31.4672 39.4524 31.4775 39.824C31.4878 40.1955 31.573 40.5612 31.7281 40.8991C31.8832 41.2369 32.1049 41.5399 32.38 41.79L41 50.1899L44.22 53.36L44.89 54.02L47 56.18L45.5 57.7L36.39 67L32.61 70.83C32.2234 71.2181 31.9616 71.7128 31.8581 72.2508C31.7546 72.7887 31.8141 73.3453 32.029 73.8491C32.2439 74.353 32.6043 74.7813 33.0642 75.0789C33.524 75.3766 34.0623 75.5302 34.61 75.5199C34.9816 75.5266 35.3507 75.4573 35.6946 75.3163C36.0385 75.1753 36.35 74.9656 36.61 74.6999L47.64 63.4199L51 60.0499L61.47 70.4L65.62 74.48C65.8754 74.7355 66.1786 74.9381 66.5123 75.0764C66.846 75.2147 67.2037 75.2859 67.565 75.2859C67.9262 75.2859 68.2839 75.2147 68.6177 75.0764C68.9514 74.9381 69.2546 74.7355 69.51 74.48C69.767 74.2244 69.9709 73.9205 70.1101 73.5859C70.2493 73.2512 70.3209 72.8924 70.3209 72.5299C70.3209 72.1675 70.2493 71.8087 70.1101 71.474C69.9709 71.1394 69.767 70.8355 69.51 70.58L66.86 67.97L58.53 59.77L54.86 56.15L58 53L69.26 41.47C69.5312 41.2157 69.7482 40.9093 69.8981 40.5691C70.0479 40.229 70.1275 39.862 70.1321 39.4903C70.1367 39.1186 70.0661 38.7498 69.9246 38.4061C69.7832 38.0623 69.5737 37.7507 69.3089 37.4898C69.044 37.229 68.7292 37.0244 68.3833 36.8882C68.0374 36.7521 67.6676 36.6872 67.296 36.6975C66.9244 36.7078 66.5587 36.793 66.2209 36.9481C65.883 37.1032 65.58 37.3249 65.33 37.5999L50.9 52.25L44.56 46Z" stroke="#00008F" stroke-width="2" stroke-linecap="round" stroke-linejoin="round"/>
</svg>

<svg width="96" height="96" viewBox="0 0 96 96" fill="none" xmlns="http://www.w3.org/2000/svg"><path d="M61.55 70.77c-3.79 1.08-5.43.38-6.16.19-.137-.04-.27-.09-.4-.15-.8-.38-3.17-.48-7-7.41m19.48 4.95c6.07-3.86 14.15-12.45 20.65-29.73a2.17 2.17 0 00-2.25-2.92 45.4 45.4 0 01-18-2.44 45.571 45.571 0 01-15.79-8.95 2.189 2.189 0 00-3.29.4" stroke="#00008F" stroke-width="2" stroke-linecap="round" stroke-linejoin="round"/><path d="M58.18 59.31l7.18 2.52a2.18 2.18 0 002.54-3.23 13.27 13.27 0 00-7-5.41 15.458 15.458 0 00-2.44-.59m-7.34-12.49a88.299 88.299 0 00-2.68-14.86m24.64 21.12a5.15 5.15 0 00-3.2 0 1.93 1.93 0 000 3.66l3.56 1.2a1.93 1.93 0 002.2-2.92 5.15 5.15 0 00-2.56-1.94zM51.51 44.1h2a2.17 2.17 0 001.28-3.85c-.11-.09-.23-.15-.34-.23a5.75 5.75 0 00-3-1.08l.06 5.16zm-11.21 6l-11.56 3.8a2.18 2.18 0 00-.09 4.1 13.28 13.28 0 008.81.16 12.33 12.33 0 006.43-4.65L40.3 50.1zM26 42.36a5.18 5.18 0 00-2.62.17A5.3 5.3 0 0021.12 44a2.18 2.18 0 002.26 3.58l2.88-1a2.17 2.17 0 00-.26-4.22zm25.32 2.76c0 2.22-.173 4.437-.52 6.63l.52-6.63zm-10.85-3.35l1.5-.42a2.18 2.18 0 00-.38-4.23 5.17 5.17 0 00-2.17.22 5.1 5.1 0 00-1.79 1 1.308 1.308 0 00-.2.21l3.04 3.22z" stroke="#00008F" stroke-width="2" stroke-linecap="round" stroke-linejoin="round"/><path d="M48.44 25.25c-.28-1.05-.57-2.12-.89-3.22A2.18 2.18 0 0044 21a45.41 45.41 0 01-15.85 8.85 45.439 45.439 0 01-18 2.31 2.181 2.181 0 00-2.26 2.94C17.45 60.89 29 66.43 35.47 67.48m15.65-27.37c.14 1.78.21 3.44.2 5" stroke="#00008F" stroke-width="2" stroke-linecap="round" stroke-linejoin="round"/><path d="M44.56 46l-3.67-3.6-3.08-3-1.56-1.54a2.76 2.76 0 10-3.87 3.93l8.62 8.4 3.22 3.17.67.66L47 56.18l-1.5 1.52-9.11 9.3-3.78 3.83a2.749 2.749 0 002 4.69 2.73 2.73 0 002-.82l11.03-11.28L51 60.05 61.47 70.4l4.15 4.08a2.75 2.75 0 003.89 0 2.752 2.752 0 000-3.9l-2.65-2.61-8.33-8.2-3.67-3.62L58 53l11.26-11.53a2.761 2.761 0 10-3.93-3.87L50.9 52.25 44.56 46z" stroke="#00008F" stroke-width="2" stroke-linecap="round" stroke-linejoin="round"/></svg>
